X:1
T:[ID 11-9c]
T:[ID 11-9c]
T:Bezeichnung standardisiert: Menuett Men\"uet
T:Urheber unbekannt Datum in der hier transkribierten schriftlichen Quelle: vermutlich um 1800
C:Urheber unbekannt
C:Datum in der hier transkribierten schriftlichen Quelle: vermutlich um 1800
L:1/8
M:3/4
K:D
V:1 treble nm="Primo"
V:1
 a4 g2 | f2 e2 d2 | ef d2 c2 | Bc | d4 e2 | fd f2 ^g2 | a"^\#"gfe d2 | cd c2 B2 |{AB} A6 :: e4 d2 | %10
 c2 B2 A2 | d2 a2 g2 | f4{ef} d2 | a4 ba | g2 eg f2 | Be d2 Tc2 | d6 :| %17

